X:0215
T:Quick March 2nd Battn. of Royals
M:6/8
L:1/8
Q:3/8=88
I: :: ::
Z:Jack Campin * www.campin.me.uk * 2009
K:D
d|BAG FED|E2G G3 |A2A  ABG|F2G A2d|
  BAG FED|E2G G3 |A2A  AdA|F2D D2:|
e|f2d d2e|f2d cBA|B2G  GAG|A2G FED|
  f2d d2e|f2d cBA|B2G =cAF|G3  G2:|
<end>
<start>
